src/images/resources/dwLogo.svg

<svg width="52" height="24" viewBox="0 0 52 24" fill="none" xmlns="http://www.w3.org/2000/svg">
<path d="M23.6225 9.73924L25.3208 15.6H26.1825L29.4378 5.31892H27.491V0H35.4378L40.9272 15.6L44.3976 5.31892H43.1733V0H46.1931H51.2676L43.1612 24H38.6931L33.2995 8.85405H32.8846L27.7463 24H23.374L21.2676 17.3189L23.6225 9.73924Z" fill="#0F1629"/>
<path fill-rule="evenodd" clip-rule="evenodd" d="M1.83824 5.2129V24H12.1529C18.7904 24 25.5312 17.4452 23.6929 9.70322C21.8547 1.96129 15.9315 0 12.1529 0H0V5.2129H1.83824ZM6.99542 4.5952V19.3049H10.723C14.6868 19.3049 18.3744 17.1876 18.3744 11.635C18.3744 6.37049 13.9399 4.5952 10.723 4.5952H6.99542Z" fill="#0F1629"/>
</svg>

<svg xmlns="http://www.w3.org/2000/svg" width="52" height="24" fill="none"><path fill="#0F1629" d="m23.622 9.74 1.699 5.86h.861l3.256-10.281H27.49V0h7.947l5.49 15.6 3.47-10.281h-1.225V0h8.095L43.16 24h-4.468L33.3 8.854h-.415L27.746 24h-4.372l-2.106-6.681 2.354-7.58Z"/><path fill="#0F1629" fill-rule="evenodd" d="M1.838 5.213V24h10.315c6.637 0 13.378-6.555 11.54-14.297C21.855 1.961 15.93 0 12.153 0H0v5.213h1.838Zm5.157-.618v14.71h3.728c3.964 0 7.651-2.117 7.651-7.67 0-5.265-4.434-7.04-7.651-7.04H6.995Z" clip-rule="evenodd"/></svg>
